!!!OTL: Als juengstens Herr Merkurius.
!!!OTL-incipit: ALS JUENGSTENS HERR MERKURIUS
!!!COM: Ges. v. H. Langer
!!!ARE: Europa, Mitteleuropa, Deutschland
!!!SCT: F0840
!!!TXL: @@DE
!!!YEM: Copyright 1995, estate of Helmut Schaffrath.
**kern	**text
*ICvox	*
*clefG2	*
*M4/4	*
*met(c)	*
*k[f#]	*
*G:	*
{4d	1._Als
=1	=1
4g	jüngſtens
4g	.
4g	Herr
4b/	Mer-
=2	=2
4.d	-ku-
8d	-ri-
4d}	-us
{4d	im
=3	=3
4.cc	Him-
8b	-mel
4.a	rap-
8b/	-por-
=4	=4
(>4d	-tir-
4f#)	.
8g	-te,
8r}	.
{4d	daß
=5	=5
4g	Kö-
4g	-nig
4g	Fried-
4b/	-rich
=6	=6
4.d	ma-
8d	-xi-
4d}	-mus
{4d	auf
=7	=7
4.cc	Er-
8b	-den
4.a	noch
8b/	re-
=8	=8
(>4d	-gier-
4f#)	.
8g	-te,
8r}	.
{4g	ſprach
=9	=9
4.dd	Ʒeus:
8cc	Er
4b	hat
4g	ge-
=10	=10
4.ee	-nug
8dd	ge-
4cc}	-lebt,
{4b	Ʒeit
=11	=11
4a	iſt
4a	es,
4b/	daß
4cc/	man
=12	=12
4.dd/	ihn
8cc/	begräbt.
4b/}	.
{4a	Jch
=13	=13
4g	ge-
4g	-be
4g	ſei-
4b/	-ne
=14	=14
(>4.d	Kro-
8e)	.
4d}	-ne
{4g/	nun
=15	=15
4.cc/	ſeines
8a	.
4f#	Bruders
4d	.
=16	=16
2a	Soh-
8g	-ne.
8r;}	.
{4a	Jch
=17	=17
4g	ge-
4g	-be
4g	ſei-
4b/	-ne
=18	=18
(>4.d	Kro-
8e)	.
4d}	-ne
{4g	nun
=19	=19
4.cc/	ſeines
8a	.
4f#	Bruders
4d	.
=20	=20
2a	Soh-
8g	-ne.
8r;}	.
==	==
!!!AGN: erzaehlendes Volks - Lied, Ballade; Scherz
!!!ONB: ESAC (Essen Associative Code) Database: FINK
!!!AMT: simple quadruple
!!!AIN: vox
!!!EED: Helmut Schaffrath
!!!EEV: 1.0
!!!RDF**kern: > = above
!!!GTL: Romanzen und Balladen
!!Text: Volkslied
!!!source: Musikalischer Hausschatz der Deutschen. Eine Sammlung von über 1000 Liedern und Gesängen mit Singstimmen und Klavierbegleitung. Leipzig, Litterarisches Verlags-Haus.
!!!page: 596
!!!URL-scan: https://www.digitale-sammlungen.de/en/view/bsb11144622?page=532
!!!ENC: Anna Maria Matuszewska
!!!EEV: 2024/08/07
*-	*-